X: 2336
M: C
L: 1/8
K: F
(3(cde) |\
f2f2 fcaf | g2g2 gcbg |\
[1,3 agfe dgba | g^fga g2 :|\
[2,4 agfe dbge | f2f2f2 :|
|: c2 |:\
[1,3 cege bgeg | fagf edcB :|\
[2,4 cege bgeg | f2f2f2 :|


